P2
# Exemple de fichier PGM (niveaux de gris en mode texte)
# Largeur Hauteur
12 12
# Valeur maximale
255
  0   0   0   0   0   0   0   0   0   0   0   0
  0   0 255 255 255 255 255 255 255 255   0   0
  0 255   0   0   0   0   0   0   0   0 255   0
  0 255   0   0   0   0   0   0   0   0 255   0
  0 255   0   0 255 255 255 255   0   0 255   0
  0 255   0   0 255   0   0 255   0   0 255   0
  0 255   0   0 255   0   0 255   0   0 255   0
  0 255   0   0 255 255 255 255   0   0 255   0
  0 255   0   0   0   0   0   0   0   0 255   0
  0 255   0   0   0   0   0   0   0   0 255   0
  0   0 255 255 255 255 255 255 255 255   0   0
  0   0   0   0   0   0   0   0   0   0   0   0
